dist/assets/images/icons/arr-l.svg

<svg width="28" height="28" viewBox="0 0 28 28" fill="none" xmlns="http://www.w3.org/2000/svg">
<path d="M11.3426 21.4595C11.5504 21.4595 11.7582 21.3829 11.9223 21.2188C12.2395 20.9017 12.2395 20.3767 11.9223 20.0595L5.86289 14.0001L11.9223 7.94072C12.2395 7.62354 12.2395 7.09854 11.9223 6.78135C11.6051 6.46416 11.0801 6.46416 10.7629 6.78135L4.12382 13.4204C3.80664 13.7376 3.80664 14.2626 4.12382 14.5798L10.7629 21.2188C10.927 21.3829 11.1348 21.4595 11.3426 21.4595Z" fill="#101112"/>
<path d="M4.88906 14.8203H23.2969C23.7453 14.8203 24.1172 14.4484 24.1172 14C24.1172 13.5516 23.7453 13.1797 23.2969 13.1797H4.88906C4.44062 13.1797 4.06875 13.5516 4.06875 14C4.06875 14.4484 4.44062 14.8203 4.88906 14.8203Z" fill="#101112"/>
</svg>

<svg width="28" height="28" fill="none" xmlns="http://www.w3.org/2000/svg"><path d="M11.343 21.46a.811.811 0 00.58-.241.825.825 0 000-1.16L5.862 14l6.06-6.06a.825.825 0 000-1.159.825.825 0 00-1.16 0l-6.64 6.64a.825.825 0 000 1.159l6.64 6.639c.164.164.372.24.58.24z" fill="#101112"/><path d="M4.89 14.82h18.407c.448 0 .82-.372.82-.82a.826.826 0 00-.82-.82H4.889a.826.826 0 00-.82.82c0 .448.372.82.82.82z" fill="#101112"/></svg>
